X: 18890
T: In The Promised Land
R: reel
M: 4/4
K: Dmajor
|:B|AB~B2 AF~F2|BFAF EF A/B/c|d2cB AF~F2|BFAF ~E3:|
|:c|dBFB DBFB|BAEA BAEA|DBFB DBFB|cBAF ~E3:|

